;FLAVOR:Marlin
;TIME:5829
;Filament used: 3.43305m
;Layer height: 0.13125
;Generated with Cura_SteamEngine 3.2.1
M190 S65
M104 S205
M109 S205
M82 ;absolute extrusion mode
G21;(metric values)
G90;(absolute positioning)
M82;(set extruder to absolute mode)
M107;(start with the fan off)
G28;(Home the printer)
G92 E0;(Reset the extruder to 0)
G0 Z5 E5 F500;(Move up and prime the nozzle)
G0 X-1 Z0;(Move outside the printable area)
G1 Y60 E8 F500;(Draw a priming/wiping line to the rear)
G1 X-1;(Move a little closer to the print area)
G1 Y10 E16 F500;(draw more priming/wiping)
G1 E15 F250;(Small retract)
G92 E0;(Zero the extruder)
;LAYER_COUNT:76
;LAYER:0
M107
G0 F4320 X17.254 Y25.857 Z0.262
;TYPE:SKIRT
G1 F1800 X17.811 Y25.55 E0.02425
G1 X18.403 Y25.315 E0.04853
G1 X19.02 Y25.156 E0.07282
G1 X19.652 Y25.075 E0.09711
G1 X19.976 Y25.065 E0.10947
G1 X29.976 Y25.065 E0.49072
G1 X30.612 Y25.105 E0.51501
G1 X31.237 Y25.224 E0.53927
G1 X31.843 Y25.421 E0.56356
G1 X32.419 Y25.692 E0.58783
G1 X32.957 Y26.033 E0.61211
G1 X33.448 Y26.439 E0.6364
G1 X33.884 Y26.903 E0.66068
G1 X34.259 Y27.418 E0.68496
G1 X34.566 Y27.975 E0.70921
G1 X34.801 Y28.567 E0.73349
G1 X34.96 Y29.184 E0.75779
G1 X35.041 Y29.816 E0.78208
G1 X35.051 Y30.14 E0.79444
G1 X35.051 Y85.168 E2.89235
G1 X100.024 Y85.168 E5.3694
G1 X100.66 Y85.208 E5.3937
G1 X101.285 Y85.327 E5.41796
G1 X101.891 Y85.524 E5.44225
G1 X102.467 Y85.795 E5.46652
G1 X103.005 Y86.136 E5.4908
G1 X103.496 Y86.542 E5.51509
G1 X103.932 Y87.006 E5.53937
G1 X104.307 Y87.521 E5.56365
G1 X104.614 Y88.078 E5.5879
G1 X104.849 Y88.67 E5.61218
G1 X105.008 Y89.287 E5.63647
G1 X105.089 Y89.919 E5.66077
G1 X105.099 Y90.243 E5.67312
G1 X105.099 Y100.243 E6.05437
G1 X105.059 Y100.879 E6.07866
G1 X104.94 Y101.504 E6.10292
G1 X104.743 Y102.11 E6.12721
G1 X104.472 Y102.686 E6.15148
G1 X104.131 Y103.224 E6.17577
G1 X103.725 Y103.715 E6.20006
G1 X103.261 Y104.151 E6.22433
G1 X102.746 Y104.526 E6.24862
G1 X102.189 Y104.833 E6.27286
G1 X101.597 Y105.068 E6.29715
G1 X100.98 Y105.227 E6.32144
G1 X100.348 Y105.308 E6.34573
G1 X100.024 Y105.318 E6.35809
G1 X30.024 Y105.318 E9.0268
G1 X29.388 Y105.278 E9.05109
G1 X29.057 Y105.215 E9.06394
G1 X19.976 Y105.215 E9.41015
G1 X19.34 Y105.175 E9.43444
G1 X18.715 Y105.056 E9.4587
G1 X18.109 Y104.859 E9.48299
G1 X17.533 Y104.588 E9.50726
G1 X16.995 Y104.247 E9.53154
G1 X16.504 Y103.841 E9.55583
G1 X16.068 Y103.377 E9.58011
G1 X15.693 Y102.862 E9.6044
G1 X15.386 Y102.305 E9.62864
G1 X15.151 Y101.713 E9.65293
G1 X14.992 Y101.096 E9.67722
G1 X14.911 Y100.464 E9.70151
G1 X14.901 Y100.14 E9.71387
G1 X14.901 Y30.14 E12.38258
G1 X14.941 Y29.504 E12.40687
G1 X15.06 Y28.879 E12.43113
G1 X15.257 Y28.273 E12.45542
G1 X15.528 Y27.697 E12.47969
G1 X15.869 Y27.159 E12.50397
G1 X16.275 Y26.668 E12.52826
G1 X16.696 Y26.273 E12.55027
G0 F1620 X16.739 Y26.232
G0 X17.254 Y25.857
G0 F4320 X17.589 Y26.062
G1 F2400 E12.57685
G1 F1800 X18.138 Y25.787 E12.60025
G1 X18.719 Y25.585 E12.62371
G1 X19.32 Y25.461 E12.6471
G1 X19.976 Y25.415 E12.67217
G1 X29.976 Y25.415 E13.05342
G1 X30.589 Y25.455 E13.07684
G1 X31.192 Y25.574 E13.10027
G1 X31.774 Y25.771 E13.12369
G1 X32.326 Y26.041 E13.14712
G1 X32.838 Y26.381 E13.17055
G1 X33.302 Y26.784 E13.19398
G1 X33.709 Y27.244 E13.2174
G1 X34.054 Y27.753 E13.24084
G1 X34.329 Y28.302 E13.26425
G1 X34.531 Y28.883 E13.2877
G1 X34.655 Y29.484 E13.3111
G1 X34.701 Y30.14 E13.33617
G1 X34.701 Y85.518 E15.44742
G1 X100.024 Y85.518 E17.93783
G1 X100.637 Y85.558 E17.96125
G1 X101.24 Y85.677 E17.98468
G1 X101.822 Y85.874 E18.0081
G1 X102.374 Y86.144 E18.03153
G1 X102.886 Y86.484 E18.05496
G1 X103.35 Y86.887 E18.07839
G1 X103.757 Y87.347 E18.10181
G1 X104.102 Y87.856 E18.12525
G1 X104.377 Y88.405 E18.14866
G1 X104.579 Y88.986 E18.17211
G1 X104.703 Y89.587 E18.19551
G1 X104.749 Y90.243 E18.22058
G1 X104.749 Y100.243 E18.60182
G1 X104.709 Y100.856 E18.62524
G1 X104.59 Y101.459 E18.64867
G1 X104.393 Y102.041 E18.6721
G1 X104.123 Y102.593 E18.69553
G1 X103.783 Y103.105 E18.71896
G1 X103.38 Y103.569 E18.74239
G1 X102.92 Y103.976 E18.76581
G1 X102.411 Y104.321 E18.78925
G1 X101.862 Y104.596 E18.81266
G1 X101.281 Y104.798 E18.83611
G1 X100.68 Y104.922 E18.8595
G1 X100.024 Y104.968 E18.88457
G1 X30.024 Y104.968 E21.55329
G1 X29.411 Y104.928 E21.57671
G1 X29.092 Y104.865 E21.5891
G1 X19.976 Y104.865 E21.93664
G1 X19.363 Y104.825 E21.96006
G1 X18.76 Y104.706 E21.9835
G1 X18.178 Y104.509 E22.00692
G1 X17.626 Y104.239 E22.03035
G1 X17.114 Y103.899 E22.05378
G1 X16.65 Y103.496 E22.07721
G1 X16.243 Y103.036 E22.10063
G1 X15.898 Y102.527 E22.12407
G1 X15.623 Y101.978 E22.14748
G1 X15.421 Y101.397 E22.17093
G1 X15.297 Y100.796 E22.19433
G1 X15.251 Y100.14 E22.2194
G1 X15.251 Y30.14 E24.88811
G1 X15.291 Y29.527 E24.91153
G1 X15.41 Y28.924 E24.93496
G1 X15.607 Y28.342 E24.95838
G1 X15.877 Y27.79 E24.98181
G1 X16.217 Y27.278 E25.00524
G1 X16.62 Y26.814 E25.02867
G1 X17.018 Y26.462 E25.04893
G0 F1620 X17.08 Y26.407
G0 X17.589 Y26.062
G0 F4320 X17.42 Y26.59
G1 F2400 E25.0755
G1 F1800 X17.922 Y26.277 E25.09806
G1 X18.461 Y26.036 E25.12057
G1 X19.029 Y25.869 E25.14314
G1 X19.613 Y25.78 E25.16566
G1 X19.976 Y25.765 E25.17951
G1 X29.976 Y25.765 E25.56075
G1 X30.566 Y25.805 E25.5833
G1 X31.145 Y25.924 E25.60583
G1 X31.703 Y26.12 E25.62838
G1 X32.229 Y26.39 E25.65092
G1 X32.714 Y26.728 E25.67346
G1 X33.149 Y27.128 E25.69599
G1 X33.526 Y27.584 E25.71855
G1 X33.839 Y28.086 E25.7411
G1 X34.08 Y28.625 E25.76361
G1 X34.247 Y29.193 E25.78618
G1 X34.336 Y29.777 E25.8087
G1 X34.351 Y30.14 E25.82255
G1 X34.351 Y85.868 E27.94715
G1 X100.024 Y85.868 E30.4509
G1 X100.614 Y85.908 E30.47344
G1 X101.193 Y86.027 E30.49598
G1 X101.751 Y86.223 E30.51853
G1 X102.277 Y86.493 E30.54107
G1 X102.762 Y86.831 E30.56361
G1 X103.197 Y87.231 E30.58614
G1 X103.574 Y87.687 E30.60869
G1 X103.887 Y88.189 E30.63125
G1 X104.128 Y88.728 E30.65376
G1 X104.295 Y89.296 E30.67633
G1 X104.384 Y89.88 E30.69885
G1 X104.399 Y90.243 E30.7127
G1 X104.399 Y100.243 E31.09394
G1 X104.359 Y100.833 E31.11649
G1 X104.24 Y101.412 E31.13902
G1 X104.044 Y101.97 E31.16157
G1 X103.774 Y102.496 E31.18411
G1 X103.436 Y102.981 E31.20665
G1 X103.036 Y103.416 E31.22918
G1 X102.58 Y103.793 E31.25174
G1 X102.078 Y104.106 E31.27429
G1 X101.539 Y104.347 E31.2968
G1 X100.971 Y104.514 E31.31937
G1 X100.387 Y104.603 E31.34189
G1 X100.024 Y104.618 E31.35574
G1 X30.024 Y104.618 E34.02445
G1 X29.434 Y104.578 E34.047
G1 X29.127 Y104.515 E34.05895
G1 X19.976 Y104.515 E34.40782
G1 X19.386 Y104.475 E34.43037
G1 X18.807 Y104.356 E34.4529
G1 X18.249 Y104.16 E34.47545
G1 X17.723 Y103.89 E34.49799
G1 X17.238 Y103.552 E34.52053
G1 X16.803 Y103.152 E34.54306
G1 X16.426 Y102.696 E34.56562
G1 X16.113 Y102.194 E34.58817
G1 X15.872 Y101.655 E34.61068
G1 X15.705 Y101.087 E34.63325
G1 X15.616 Y100.503 E34.65577
G1 X15.601 Y100.14 E34.66963
G1 X15.601 Y30.14 E37.33834
G1 X15.641 Y29.55 E37.36088
G1 X15.76 Y28.971 E37.38342
G1 X15.956 Y28.413 E37.40596
G1 X16.226 Y27.887 E37.4285
G1 X16.564 Y27.402 E37.45104
G1 X16.893 Y27.045 E37.46955
G0 F1620 X16.964 Y26.967
G0 X17.42 Y26.59
G0 F4320 X17.758 Y26.781
G1 F2400 E37.49612
G1 F1800 X18.252 Y26.503 E37.51773
G1 X18.78 Y26.297 E37.53934
G1 X19.332 Y26.167 E37.56096
G1 X19.976 Y26.115 E37.58559
G1 X29.976 Y26.115 E37.96684
G1 X30.542 Y26.155 E37.98847
G1 X31.096 Y26.274 E38.01007
G1 X31.628 Y26.47 E38.03169
G1 X32.128 Y26.738 E38.05332
G1 X32.584 Y27.075 E38.07493
G1 X32.989 Y27.472 E38.09655
G1 X33.335 Y27.922 E38.1182
G1 X33.613 Y28.416 E38.13981
G1 X33.819 Y28.944 E38.16141
G1 X33.949 Y29.496 E38.18303
G1 X34.001 Y30.14 E38.20767
G1 X34.001 Y86.218 E40.34561
G1 X100.024 Y86.218 E42.8627
G1 X100.59 Y86.258 E42.88433
G1 X101.144 Y86.377 E42.90593
G1 X101.676 Y86.573 E42.92755
G1 X102.176 Y86.841 E42.94918
G1 X102.632 Y87.178 E42.97079
G1 X103.037 Y87.575 E42.99241
G1 X103.383 Y88.025 E43.01405
G1 X103.661 Y88.519 E43.03567
G1 X103.867 Y89.047 E43.05727
G1 X103.997 Y89.599 E43.07889
G1 X104.049 Y90.243 E43.10353
G1 X104.049 Y100.243 E43.48477
G1 X104.009 Y100.809 E43.5064
G1 X103.89 Y101.363 E43.528
G1 X103.694 Y101.895 E43.54962
G1 X103.426 Y102.395 E43.57125
G1 X103.089 Y102.851 E43.59286
G1 X102.692 Y103.256 E43.61449
G1 X102.242 Y103.602 E43.63613
G1 X101.748 Y103.88 E43.65774
G1 X101.22 Y104.086 E43.67935
G1 X100.668 Y104.216 E43.70097
G1 X100.024 Y104.268 E43.7256
G1 X30.024 Y104.268 E46.39431
G1 X29.458 Y104.228 E46.41594
G1 X29.165 Y104.165 E46.42737
G1 X19.976 Y104.165 E46.77769
G1 X19.41 Y104.125 E46.79932
G1 X18.856 Y104.006 E46.82093
G1 X18.324 Y103.81 E46.84254
G1 X17.824 Y103.542 E46.86417
G1 X17.368 Y103.205 E46.88579
G1 X16.963 Y102.808 E46.90741
G1 X16.617 Y102.358 E46.92905
G1 X16.339 Y101.864 E46.95066
G1 X16.133 Y101.336 E46.97227
G1 X16.003 Y100.784 E46.99389
G1 X15.951 Y100.14 E47.01852
G1 X15.951 Y30.14 E49.68723
G1 X15.991 Y29.574 E49.70886
G1 X16.11 Y29.02 E49.73046
G1 X16.306 Y28.488 E49.75208
G1 X16.574 Y27.988 E49.77371
G1 X16.911 Y27.532 E49.79532
G1 X17.217 Y27.219 E49.81201
G0 F1620 X17.308 Y27.127
G0 X17.758 Y26.781
G0 F4320 X18.094 Y26.984
G1 F2400 E49.83858
G1 F1800 X18.578 Y26.741 E49.85923
G1 X19.093 Y26.573 E49.87988
G1 X19.627 Y26.482 E49.90054
G1 X19.976 Y26.465 E49.91386
G1 X29.976 Y26.465 E50.2951
G1 X30.516 Y26.505 E50.31575
G1 X31.045 Y26.624 E50.33642
G1 X31.55 Y26.819 E50.35706
G1 X32.022 Y27.087 E50.37775
G1 X32.448 Y27.421 E50.39839
G1 X32.821 Y27.814 E50.41904
G1 X33.132 Y28.258 E50.43971
G1 X33.375 Y28.742 E50.46036
G1 X33.543 Y29.257 E50.48101
G1 X33.634 Y29.791 E50.50166
G1 X33.651 Y30.14 E50.51498
G1 X33.651 Y86.568 E52.66627
G1 X100.024 Y86.568 E55.1967
G1 X100.564 Y86.608 E55.21734
G1 X101.093 Y86.727 E55.23802
G1 X101.598 Y86.922 E55.25865
G1 X102.07 Y87.19 E55.27935
G1 X102.496 Y87.524 E55.29999
G1 X102.869 Y87.917 E55.32064
G1 X103.18 Y88.361 E55.34131
G1 X103.423 Y88.845 E55.36196
G1 X103.591 Y89.36 E55.38261
G1 X103.682 Y89.894 E55.40326
G1 X103.699 Y90.243 E55.41658
G1 X103.699 Y100.243 E55.79783
G1 X103.659 Y100.783 E55.81847
G1 X103.54 Y101.312 E55.83914
G1 X103.345 Y101.817 E55.85978
G1 X103.077 Y102.289 E55.88047
G1 X102.743 Y102.715 E55.90111
G1 X102.35 Y103.088 E55.92177
G1 X101.906 Y103.399 E55.94243
G1 X101.422 Y103.642 E55.96308
G1 X100.907 Y103.81 E55.98373
G1 X100.373 Y103.901 E56.00439
G1 X100.024 Y103.918 E56.01771
G1 X30.024 Y103.918 E58.68642
G1 X29.484 Y103.878 E58.70706
G1 X29.204 Y103.815 E58.718
G1 X19.976 Y103.815 E59.06981
G1 X19.436 Y103.775 E59.09046
G1 X18.907 Y103.656 E59.11113
G1 X18.402 Y103.461 E59.13177
G1 X17.93 Y103.193 E59.15246
G1 X17.504 Y102.859 E59.1731
G1 X17.131 Y102.466 E59.19376
G1 X16.82 Y102.022 E59.21442
G1 X16.577 Y101.538 E59.23507
G1 X16.409 Y101.023 E59.25572
G1 X16.318 Y100.489 E59.27637
G1 X16.301 Y100.14 E59.2897
G1 X16.301 Y30.14 E61.95841
G1 X16.341 Y29.6 E61.97905
G1 X16.46 Y29.071 E61.99972
G1 X16.655 Y28.566 E62.02036
G1 X16.923 Y28.094 E62.04105
G1 X17.257 Y27.668 E62.06169
G1 X17.538 Y27.401 E62.07647
G0 F1620 X17.65 Y27.295
G0 X18.094 Y26.984
G0 F4320 X17.991 Y27.473
G1 F2400 E62.10304
G1 F1800 X18.427 Y27.198 E62.12269
G1 X18.9 Y26.994 E62.14233
G1 X19.399 Y26.865 E62.16198
G1 X19.976 Y26.815 E62.18406
G1 X29.976 Y26.815 E62.56531
G1 X30.49 Y26.855 E62.58496
G1 X30.991 Y26.974 E62.60459
G1 X31.468 Y27.169 E62.62424
G1 X31.91 Y27.435 E62.64391
G1 X32.304 Y27.766 E62.66352
G1 X32.643 Y28.155 E62.6832
G1 X32.918 Y28.591 E62.70285
G1 X33.122 Y29.064 E62.72249
G1 X33.251 Y29.563 E62.74214
G1 X33.301 Y30.14 E62.76422
G1 X33.301 Y86.918 E64.92885
G1 X100.024 Y86.918 E67.47262
G1 X100.538 Y86.958 E67.49228
G1 X101.039 Y87.077 E67.51191
G1 X101.516 Y87.272 E67.53156
G1 X101.958 Y87.538 E67.55122
G1 X102.352 Y87.869 E67.57084
G1 X102.691 Y88.258 E67.59051
G1 X102.966 Y88.694 E67.61016
G1 X103.17 Y89.167 E67.6298
G1 X103.299 Y89.666 E67.64945
G1 X103.349 Y90.243 E67.67153
G1 X103.349 Y100.243 E68.05278
G1 X103.309 Y100.757 E68.07243
G1 X103.19 Y101.258 E68.09206
G1 X102.995 Y101.735 E68.11171
G1 X102.729 Y102.177 E68.13138
G1 X102.398 Y102.571 E68.151
G1 X102.009 Y102.91 E68.17067
G1 X101.573 Y103.185 E68.19032
G1 X101.1 Y103.389 E68.20996
G1 X100.601 Y103.518 E68.22961
G1 X100.024 Y103.568 E68.25169
G1 X30.024 Y103.568 E70.9204
G1 X29.51 Y103.528 E70.94005
G1 X29.245 Y103.465 E70.95044
G1 X19.976 Y103.465 E71.30381
G1 X19.462 Y103.425 E71.32347
G1 X18.961 Y103.306 E71.3431
G1 X18.484 Y103.111 E71.36275
G1 X18.042 Y102.845 E71.38241
G1 X17.648 Y102.514 E71.40203
G1 X17.309 Y102.125 E71.4217
G1 X17.034 Y101.689 E71.44136
G1 X16.83 Y101.216 E71.46099
G1 X16.701 Y100.717 E71.48064
G1 X16.651 Y100.14 E71.50272
G1 X16.651 Y30.14 E74.17143
G1 X16.691 Y29.626 E74.19109
G1 X16.81 Y29.125 E74.21072
G1 X17.005 Y28.648 E74.23037
G1 X17.271 Y28.206 E74.25004
G1 X17.485 Y27.951 E74.26273
G0 F1620 X17.602 Y27.812
G0 X17.991 Y27.473
G0 F4320 X18.329 Y27.662
G1 F2400 E74.2893
G1 F1800 X18.756 Y27.427 E74.30788
G1 X19.215 Y27.264 E74.32645
G1 X19.695 Y27.178 E74.34504
G1 X19.976 Y27.165 E74.35577
G1 X29.976 Y27.165 E74.73701
G1 X30.462 Y27.205 E74.7556
G1 X30.935 Y27.324 E74.7742
G1 X31.382 Y27.518 E74.79277
G1 X31.791 Y27.783 E74.81135
G1 X32.151 Y28.111 E74.82992
G1 X32.454 Y28.493 E74.84851
G1 X32.689 Y28.92 E74.86709
G1 X32.852 Y29.379 E74.88566
G1 X32.938 Y29.859 E74.90425
G1 X32.951 Y30.14 E74.91498
G1 X32.951 Y87.268 E77.09295
G1 X100.024 Y87.268 E79.65007
G1 X100.51 Y87.308 E79.66866
G1 X100.983 Y87.427 E79.68725
G1 X101.43 Y87.621 E79.70583
G1 X101.839 Y87.886 E79.72441
G1 X102.199 Y88.214 E79.74298
G1 X102.502 Y88.596 E79.76157
G1 X102.737 Y89.023 E79.78015
G1 X102.9 Y89.482 E79.79872
G1 X102.986 Y89.962 E79.81731
G1 X102.999 Y90.243 E79.82803
G1 X102.999 Y100.243 E80.20928
G1 X102.959 Y100.729 E80.22787
G1 X102.84 Y101.202 E80.24646
G1 X102.646 Y101.649 E80.26504
G1 X102.381 Y102.058 E80.28362
G1 X102.053 Y102.418 E80.30219
G1 X101.671 Y102.721 E80.32078
G1 X101.244 Y102.956 E80.33936
G1 X100.785 Y103.119 E80.35793
G1 X100.305 Y103.205 E80.37652
G1 X100.024 Y103.218 E80.38724
G1 X30.024 Y103.218 E83.05596
G1 X29.538 Y103.178 E83.07455
G1 X29.288 Y103.115 E83.08438
G1 X19.976 Y103.115 E83.43939
G1 X19.49 Y103.075 E83.45798
G1 X19.017 Y102.956 E83.47658
G1 X18.57 Y102.762 E83.49515
G1 X18.161 Y102.497 E83.51373
G1 X17.801 Y102.169 E83.5323
G1 X17.498 Y101.787 E83.55089
G1 X17.263 Y101.36 E83.56947
G1 X17.1 Y100.901 E83.58804
G1 X17.014 Y100.421 E83.60663
G1 X17.001 Y100.14 E83.61736
G1 X17.001 Y30.14 E86.28607
G1 X17.041 Y29.654 E86.30466
G1 X17.16 Y29.181 E86.32325
G1 X17.354 Y28.734 E86.34183
G1 X17.619 Y28.325 E86.36041
G1 X17.806 Y28.12 E86.37099
G0 F1620 X17.947 Y27.965
G0 X18.329 Y27.662
G0 F4320 X18.665 Y27.866
G1 F2400 E86.39756
G1 F1800 X19.08 Y27.673 E86.41501
G1 X19.522 Y27.555 E86.43245
G1 X19.976 Y27.515 E86.44983
G1 X29.976 Y27.515 E86.83107
G1 X30.432 Y27.555 E86.84852
G1 X30.874 Y27.673 E86.86596
G1 X31.289 Y27.867 E86.88343
G1 X31.664 Y28.13 E86.90089
G1 X31.988 Y28.454 E86.91836
G1 X32.25 Y28.829 E86.9358
G1 X32.443 Y29.244 E86.95325
G1 X32.561 Y29.686 E86.97069
G1 X32.601 Y30.14 E86.98807
G1 X32.601 Y87.618 E89.17938
G1 X100.024 Y87.618 E91.74984
G1 X100.48 Y87.658 E91.7673
G1 X100.922 Y87.776 E91.78474
G1 X101.337 Y87.97 E91.8022
G1 X101.712 Y88.233 E91.81966
G1 X102.036 Y88.557 E91.83713
G1 X102.298 Y88.932 E91.85457
G1 X102.491 Y89.347 E91.87202
G1 X102.609 Y89.789 E91.88946
G1 X102.649 Y90.243 E91.90684
G1 X102.649 Y100.243 E92.28808
G1 X102.609 Y100.699 E92.30554
G1 X102.491 Y101.141 E92.32298
G1 X102.297 Y101.556 E92.34044
G1 X102.034 Y101.931 E92.3579
